packages/core/src/svgs/wacme.svg

<svg width="24" height="24" viewBox="0 0 24 24" fill="none" xmlns="http://www.w3.org/2000/svg">
<g clip-path="url(#clip0_31_20565)">
<path d="M0 0H24V24H0V0Z" fill="#00A6FC"/>
<path d="M13.2858 6.00007C13.2858 6.34106 13.1503 6.66809 12.9092 6.90921C12.6681 7.15033 12.3411 7.28578 12.0001 7.28578C11.6591 7.28578 11.3321 7.15033 11.0909 6.90921C10.8498 6.66809 10.7144 6.34106 10.7144 6.00007C10.7144 5.65908 10.8498 5.33205 11.0909 5.09093C11.3321 4.84981 11.6591 4.71436 12.0001 4.71436C12.3411 4.71436 12.6681 4.84981 12.9092 5.09093C13.1503 5.33205 13.2858 5.65908 13.2858 6.00007Z" fill="#F0F3FA"/>
<path d="M6.42878 10.2858C7.13886 10.2858 7.71449 9.71015 7.71449 9.00007C7.71449 8.28999 7.13886 7.71436 6.42878 7.71436C5.7187 7.71436 5.14307 8.28999 5.14307 9.00007C5.14307 9.71015 5.7187 10.2858 6.42878 10.2858Z" fill="#F0F3FA"/>
<path d="M6.42878 16.2858C7.13886 16.2858 7.71449 15.7102 7.71449 15.0001C7.71449 14.29 7.13886 13.7144 6.42878 13.7144C5.7187 13.7144 5.14307 14.29 5.14307 15.0001C5.14307 15.7102 5.7187 16.2858 6.42878 16.2858Z" fill="#F0F3FA"/>
<path d="M12.0001 19.2858C12.7102 19.2858 13.2858 18.7102 13.2858 18.0001C13.2858 17.29 12.7102 16.7144 12.0001 16.7144C11.29 16.7144 10.7144 17.29 10.7144 18.0001C10.7144 18.7102 11.29 19.2858 12.0001 19.2858Z" fill="#F0F3FA"/>
<path d="M17.5714 16.2858C18.2814 16.2858 18.8571 15.7102 18.8571 15.0001C18.8571 14.29 18.2814 13.7144 17.5714 13.7144C16.8613 13.7144 16.2856 14.29 16.2856 15.0001C16.2856 15.7102 16.8613 16.2858 17.5714 16.2858Z" fill="#F0F3FA"/>
<path d="M17.5714 10.2858C18.2814 10.2858 18.8571 9.71015 18.8571 9.00007C18.8571 8.28999 18.2814 7.71436 17.5714 7.71436C16.8613 7.71436 16.2856 8.28999 16.2856 9.00007C16.2856 9.71015 16.8613 10.2858 17.5714 10.2858Z" fill="#F0F3FA"/>
<path d="M12.0001 13.2858C12.7102 13.2858 13.2858 12.7102 13.2858 12.0001C13.2858 11.29 12.7102 10.7144 12.0001 10.7144C11.29 10.7144 10.7144 11.29 10.7144 12.0001C10.7144 12.7102 11.29 13.2858 12.0001 13.2858Z" fill="#F0F3FA"/>
<path d="M14.1128 11.6271C14.0615 11.3409 13.9521 11.0681 13.7914 10.8257L15.8657 9.69429C15.9171 9.99857 16.0071 10.1657 16.2771 10.4486L14.1128 11.6271ZM13.6885 13.3157C13.8642 13.0929 13.9971 12.8314 14.0742 12.5486L16.2471 13.5386C15.9728 13.7957 15.9 13.9671 15.8957 14.3186L13.6885 13.3157ZM11.5714 14.1C11.8542 14.1575 12.1457 14.1575 12.4285 14.1V16.5C12.2941 16.4381 12.1479 16.406 12 16.406C11.852 16.406 11.7058 16.4381 11.5714 16.5V14.1ZM9.93425 12.57C10.0114 12.8529 10.1485 13.11 10.32 13.3329L8.36139 14.5114C8.33996 14.1771 8.21568 14.0229 7.92425 13.7743L9.93425 12.57ZM9.88282 11.67L9.85282 11.7257L7.70996 10.44C8.00996 10.1271 8.09568 9.96857 8.1471 9.70286L10.1571 10.9071C10.0172 11.1428 9.92404 11.4033 9.88282 11.6743V11.67ZM12.4285 9.9C12.1457 9.84251 11.8542 9.84251 11.5714 9.9V7.5C11.85 7.61143 12.0428 7.60286 12.4285 7.5V9.9Z" fill="#F0F3FA"/>
</g>
<defs>
<clipPath id="clip0_31_20565">
<rect width="24" height="24" fill="white"/>
</clipPath>
</defs>
</svg>

<svg xmlns="http://www.w3.org/2000/svg" width="24" height="24" fill="none" viewBox="0 0 24 24"><g clip-path="url(#a)"><path fill="#00A6FC" d="M0 0h24v24H0z"/><path fill="#F0F3FA" d="M13.286 6a1.286 1.286 0 1 1-2.572 0 1.286 1.286 0 0 1 2.572 0M6.429 10.286a1.286 1.286 0 1 0 0-2.572 1.286 1.286 0 0 0 0 2.572M6.429 16.286a1.286 1.286 0 1 0 0-2.572 1.286 1.286 0 0 0 0 2.572M12 19.286a1.286 1.286 0 1 0 0-2.572 1.286 1.286 0 0 0 0 2.572M17.571 16.286a1.286 1.286 0 1 0 0-2.572 1.286 1.286 0 0 0 0 2.572M17.571 10.286a1.286 1.286 0 1 0 0-2.572 1.286 1.286 0 0 0 0 2.572M12 13.286a1.286 1.286 0 1 0 0-2.572 1.286 1.286 0 0 0 0 2.572M14.113 11.627a2.1 2.1 0 0 0-.322-.801l2.075-1.132c.051.305.141.472.411.755zm-.425 1.689c.176-.223.31-.485.386-.767l2.173.99c-.274.257-.347.428-.351.78zm-2.117.784c.283.058.575.058.857 0v2.4a1.02 1.02 0 0 0-.857 0zm-1.637-1.53c.077.283.215.54.386.763L8.361 14.51c-.021-.334-.145-.488-.437-.737zm-.051-.9-.03.056L7.71 10.44c.3-.313.386-.471.437-.737l2.01 1.204c-.14.236-.233.496-.274.767zm2.546-1.77a2.2 2.2 0 0 0-.858 0V7.5c.279.111.472.103.857 0z"/></g><defs><clipPath id="a"><path fill="#fff" d="M0 0h24v24H0z"/></clipPath></defs></svg>
